X:1
T:Sally Ann
L:1/8
M:C|
I:linebreak $
K:A
V:1 treble
V:1
|: ef |"A" a2 ab af e2 |"D" f2- ff f4 | a2 f2 ec c2 |"A" e2- ee e2 ef |$
 e2 c2 B2 A2 |"E" B2- BB B4 |  cBAc BAFE |"A" FA-AB A2 ::$
 AF |"A" EFAB cBAc |"E" B2 BA B4 | cBAc BAFE |"A" FAAB A4 |$
 EFAB cBAc |"E"  B2 BA B2 cd | efed cABc |"A" A2 AB A2 :|
